X: 1
T: Earl Of Lauderdale
M: 4/4
L: 1/8
R: reel
K: Gmaj
G2Bd cAFD|GBdg d2cB|ceAc BdGB|AcDF GDB,G,|
G2Bd cAFD|GBdg d2cB|ceAc BdGB|AcDF G2Gd|
gbeg fadf|egce d2cB|ceAc BdGB|AcDF G2Gd|
gbeg fadf|egce d2cB|ceAc BdGB|AcDF GDB,G,|
